src/view/frontend/web/svg/heroicons/solid/document-duplicate.svg

<svg viewBox="0 0 20 20" fill="currentColor" xmlns="http://www.w3.org/2000/svg">
<path d="M9 2C7.89543 2 7 2.89543 7 4V12C7 13.1046 7.89543 14 9 14H15C16.1046 14 17 13.1046 17 12V6.41421C17 5.88378 16.7893 5.37507 16.4142 5L14 2.58579C13.6249 2.21071 13.1162 2 12.5858 2H9Z" />
<path d="M3 8C3 6.89543 3.89543 6 5 6V16H13C13 17.1046 12.1046 18 11 18H5C3.89543 18 3 17.1046 3 16V8Z" />
</svg>

<svg xmlns="http://www.w3.org/2000/svg" viewBox="0 0 20 20" fill="currentColor">
  <path d="M9 2a2 2 0 00-2 2v8a2 2 0 002 2h6a2 2 0 002-2V6.414A2 2 0 0016.414 5L14 2.586A2 2 0 0012.586 2H9z"/>
  <path d="M3 8a2 2 0 012-2v10h8a2 2 0 01-2 2H5a2 2 0 01-2-2V8z"/>
</svg>
